icons/eraseron.svg

<?xml version="1.0" encoding="UTF-8" standalone="no"?>
<!-- Created with Inkscape (http://www.inkscape.org/) -->

<svg
   xmlns:svg="http://www.w3.org/2000/svg"
   xmlns="http://www.w3.org/2000/svg"
   version="1.0"
   width="50"
   height="43"
   id="svg2">
  <defs
     id="defs5" />
  <g
     transform="translate(0.61535009,0.25)"
     id="g3589"
     style="fill:#404040;fill-opacity:1;stroke:#ffffff;stroke-width:2;stroke-miterlimit:4;stroke-opacity:1;stroke-dasharray:none">
    <path
       d="M 36,25.875 36,17.5 48.5,4 47,14.5 36,25.875 z"
       id="path2394"
       style="fill:#404040;fill-opacity:1;stroke:#ffffff;stroke-width:2;stroke-linecap:butt;stroke-linejoin:round;stroke-miterlimit:4;stroke-opacity:1;stroke-dasharray:none" />
    <path
       d="M 15,17.5 28.5,4 48.5,4 36,17.5 l -21,0 z"
       id="path2390"
       style="fill:#404040;fill-opacity:1;stroke:#ffffff;stroke-width:2;stroke-linejoin:round;stroke-miterlimit:4;stroke-opacity:1;stroke-dasharray:none" />
    <path
       d="M 22.800718,38.5 25.493716,28.5 36,17.5 36,25.875 22.800718,38.5 z"
       id="path2392"
       style="fill:#404040;fill-opacity:1;stroke:#ffffff;stroke-width:2;stroke-linejoin:round;stroke-miterlimit:4;stroke-opacity:1;stroke-dasharray:none" />
    <path
       d="M 3.9497307,28.5 15,17.5 l 21,0 -10.86535,11 -21.1849193,0 z"
       id="path2388"
       style="fill:#404040;fill-opacity:1;stroke:#ffffff;stroke-width:2;stroke-linejoin:round;stroke-miterlimit:4;stroke-opacity:1;stroke-dasharray:none" />
    <path
       d="m 0.26929982,38.5 3.59066428,-10 21.1849189,0 -2.603231,10 -22.17235218,0 z"
       id="path2384"
       style="fill:#404040;fill-opacity:1;stroke:#ffffff;stroke-width:2;stroke-linejoin:round;stroke-miterlimit:4;stroke-opacity:1;stroke-dasharray:none" />
  </g>
</svg>

<?xml version="1.0" encoding="UTF-8" standalone="no"?>
<!-- Created with Inkscape (http://www.inkscape.org/) -->
<svg
   xmlns:dc="http://purl.org/dc/elements/1.1/"
   xmlns:cc="http://creativecommons.org/ns#"
   xmlns:rdf="http://www.w3.org/1999/02/22-rdf-syntax-ns#"
   xmlns:svg="http://www.w3.org/2000/svg"
   xmlns="http://www.w3.org/2000/svg"
   xmlns:sodipodi="http://sodipodi.sourceforge.net/DTD/sodipodi-0.dtd"
   xmlns:inkscape="http://www.inkscape.org/namespaces/inkscape"
   id="svg2"
   sodipodi:version="0.32"
   inkscape:version="0.46"
   width="50"
   height="43"
   version="1.0"
   sodipodi:docname="eraseroff.svg"
   inkscape:output_extension="org.inkscape.output.svg.inkscape">
  <metadata
     id="metadata7">
    <rdf:RDF>
      <cc:Work
         rdf:about="">
        <dc:format>image/svg+xml</dc:format>
        <dc:type
           rdf:resource="http://purl.org/dc/dcmitype/StillImage" />
      </cc:Work>
    </rdf:RDF>
  </metadata>
  <defs
     id="defs5">
    <inkscape:perspective
       sodipodi:type="inkscape:persp3d"
       inkscape:vp_x="0 : 526.18109 : 1"
       inkscape:vp_y="0 : 1000 : 0"
       inkscape:vp_z="744.09448 : 526.18109 : 1"
       inkscape:persp3d-origin="372.04724 : 350.78739 : 1"
       id="perspective9" />
    <inkscape:perspective
       id="perspective3267"
       inkscape:persp3d-origin="372.04724 : 350.78739 : 1"
       inkscape:vp_z="744.09448 : 526.18109 : 1"
       inkscape:vp_y="0 : 1000 : 0"
       inkscape:vp_x="0 : 526.18109 : 1"
       sodipodi:type="inkscape:persp3d" />
  </defs>
  <sodipodi:namedview
     inkscape:window-height="1000"
     inkscape:window-width="1679"
     inkscape:pageshadow="2"
     inkscape:pageopacity="0.0"
     guidetolerance="10.0"
     gridtolerance="10.0"
     objecttolerance="10.0"
     borderopacity="1.0"
     bordercolor="#666666"
     pagecolor="#ffffff"
     id="base"
     showgrid="false"
     inkscape:zoom="10"
     inkscape:cx="25"
     inkscape:cy="30.833333"
     inkscape:window-x="0"
     inkscape:window-y="0"
     inkscape:current-layer="svg2" />
  <path
     style="fill:#808080;stroke:#a0a0a0;stroke-width:1.50000000000000000;stroke-opacity:1;fill-opacity:1;stroke-dasharray:none"
     d="M 37.612208,24.238779 L 36,17.5 L 48.5,4 L 47,14.5 L 37.612208,24.238779 z"
     id="path2394"
     sodipodi:nodetypes="ccccc" />
  <path
     style="fill:#808080;stroke:#a0a0a0;stroke-width:1.50000000000000000;stroke-opacity:1;fill-opacity:1;stroke-dasharray:none"
     d="M 15,17.5 L 28.5,4 L 48.5,4 L 36,17.5 L 15,17.5 z"
     id="path2390"
     sodipodi:nodetypes="ccccc" />
  <path
     style="fill:#a0a0a0;stroke:#a0a0a0;stroke-width:1.50000000000000000;stroke-opacity:1;fill-opacity:1;stroke-dasharray:none"
     d="M 22.800718,38.5 L 25.493716,28.5 L 36,17.5 L 37.432675,24.418312 L 22.800718,38.5 z"
     id="path2392"
     sodipodi:nodetypes="ccccc" />
  <path
     style="fill:#c4c4c4;stroke:#a0a0a0;stroke-width:1.50000000000000000;stroke-opacity:1;fill-opacity:1;stroke-dasharray:none"
     d="M 3.9497307,28.5 L 15,17.5 L 36,17.5 L 25.13465,28.5 L 3.9497307,28.5 z"
     id="path2388"
     sodipodi:nodetypes="ccccc" />
  <path
     style="fill:#e0e0e0;stroke:#a0a0a0;stroke-width:1.50000000000000000;stroke-opacity:1;fill-opacity:1;stroke-dasharray:none"
     d="M 0.26929982,38.5 L 3.8599641,28.5 L 25.044883,28.5 L 22.441652,38.5 L 0.26929982,38.5 z"
     id="path2384"
     sodipodi:nodetypes="ccccc" />
</svg>
